X:8428
T:Katie Ann MacDonald
R:jig
C:Jerry Holland, SOCAN
O:20th Century Cape Breton
S:Tune ofthe Month, Oct 2000
A:<http://www.jerryholland.com>
N:Contacts ...
N:..... Jerry Holland <jerry@cranfordpub.com>
N:Tune books, related recordings
N:..... Cranford Publications <http://www.cranfordpub.com>
B:Jerry Holland: The Second Collection (Nov. 2000)
D:Crystal Clear: Jerry Holland (Nov. 2000)
H:Copyrights - Publisher:Fiddlesticks Music (SOCAN).
Z:Paul Stewart Cranford 
L:1/8
Q:300
M:6/8
K:A
ABA AEC|A,B,A, A,CE|BcB Bcd|cAc BGB|!
ABA AEC|A,B,A, A,CE|dcB cBA|EFG A2 B:|!
|:cdc cBc|efe ecA|dcB cBA|1FBB Bcd|!
cdc cBc|efe ece|fed cdB|cAA A2 B:|!
[2FBB BcB|ABc Bcd|cde fed|cec dBG|BAA AcB|]!
